svg/emoji_u1faa5.svg

<?xml version="1.0" encoding="utf-8"?>
<!-- Generator: Adobe Illustrator 25.2.3, SVG Export Plug-In . SVG Version: 6.00 Build 0)  -->
<svg version="1.1" id="Layer_5" xmlns="http://www.w3.org/2000/svg" xmlns:xlink="http://www.w3.org/1999/xlink" x="0" y="0"
	 viewBox="0 0 128 128" style="enable-background:new 0 0 128 128;" xml:space="preserve">
<g>
	<path style="fill:#E65100;" d="M116.59,13.85L85.34,37.56c-1.37,2.54-0.8,4.99,0.11,6.88c0.51,1.06-0.12,2.33-1.27,2.6
		c-5.04,1.19-14.82,2.65-18.98,6.81c0,0-53.81,50.45-56.67,53.09c-2.86,2.64-4.42,6.41-2.86,10.18c0.89,2.16,3.08,4.56,5.91,5.55
		c5.72,2,8.74,0.71,14.2-4.75c0,0,55.62-53.7,67.77-65.32c1.1-1.06,2.48-1.75,3.96-2.11c1.48-0.36,3.6-1.22,5.67-3.3l15.27-15.37
		C124.88,25.39,120.43,17.7,116.59,13.85z"/>
	<path style="fill:#FB8C00;" d="M86.53,43.1c4.94,4.94,10.38,1.56,12.27-0.33l17.74-17.74c1.89-1.89,4.36-6.86,0.04-11.18
		c-2.8-2.8-7.67-2.69-10.79,0.43L88.06,32.02C86.16,33.91,83.21,39.77,86.53,43.1z"/>
	<g>
		<g>
			<path style="fill:#69B6C9;" d="M105.78,6.14l-3.16,5.24c0,0,7.33,6.41,8.85,7.6c1.13,0.88,2.13,0.81,2.94,0s0.81-2.13,0-2.94
				S105.78,6.14,105.78,6.14z"/>
			
				<rect x="90.09" y="8.89" transform="matrix(-0.7071 -0.7071 0.7071 -0.7071 148.7728 112.0087)" style="fill:#69B6C9;" width="14.99" height="32.6"/>
			<path style="fill:#69B6C9;" d="M84.16,29.84l-5.24,3.16c0,0,8.37,7.45,9.89,8.64c1.13,0.88,2.13,0.81,2.94,0
				c0.81-0.81,0.81-2.13,0-2.94C90.94,37.88,84.16,29.84,84.16,29.84z"/>
		</g>
		<path style="fill:#A5CEDA;" d="M105.29,8.54l-3.13,5.23c0,0,8.54,7.62,10.07,8.81c1.13,0.88,2.13,0.81,2.94,0
			c0.81-0.81,0.81-2.13,0-2.94C114.36,18.83,105.29,8.54,105.29,8.54z"/>
		<path style="fill:#A5CEDA;" d="M102.18,13.04l-4.2,4.2c0,0,8.89,7.98,10.42,9.16c1.13,0.88,2.13,0.81,2.94,0
			c0.81-0.81,0.81-2.13,0-2.94S102.18,13.04,102.18,13.04z"/>
		<path style="fill:#A5CEDA;" d="M98.3,16.82l-4.2,4.2c0,0,8.95,8.03,10.47,9.21c1.13,0.88,2.13,0.81,2.94,0
			c0.81-0.81,0.81-2.13,0-2.94C106.7,26.48,98.3,16.82,98.3,16.82z"/>
		<path style="fill:#A5CEDA;" d="M93.99,20.17l-4.2,4.2c0,0,9.43,8.51,10.95,9.69c1.13,0.88,2.13,0.81,2.94,0
			c0.81-0.81,0.81-2.13,0-2.94S93.99,20.17,93.99,20.17z"/>
		<path style="fill:#A5CEDA;" d="M90.17,24l-4.2,4.2c0,0,9.43,8.51,10.95,9.69c1.13,0.88,2.13,0.81,2.94,0
			c0.81-0.81,0.81-2.13,0-2.94C99.05,34.14,90.17,24,90.17,24z"/>
		<path style="fill:#A5CEDA;" d="M87.25,28.73l-5.65,3.01c0,0,9.97,8.78,11.49,9.97c1.13,0.88,2.13,0.81,2.94,0
			c0.81-0.81,0.81-2.13,0-2.94C95.22,37.96,87.25,28.73,87.25,28.73z"/>
		<path style="fill:#B7B721;" d="M106.82,7.18"/>
		
			<linearGradient id="SVGID_1_" gradientUnits="userSpaceOnUse" x1="28.9353" y1="26.2592" x2="40.1033" y2="15.0911" gradientTransform="matrix(-1 0 0 1 128 0)">
			<stop  offset="0" style="stop-color:#FAFAFA"/>
			<stop  offset="0.7302" style="stop-color:#EEEEEE"/>
		</linearGradient>
		<path style="fill:url(#SVGID_1_);" d="M79.33,29.45c0.21-0.92-0.71-2.58,0.07-3.62c0.63-0.84,1.15-0.69,1.77-0.69
			c0.94,0,1.74-0.8,1.74-1.74c0-0.61,0.12-1.2,0.5-1.58c0.38-0.38,0.97-0.5,1.58-0.5c0.94,0,1.74-0.8,1.74-1.74
			c0-0.61,0.12-1.2,0.5-1.58c0.38-0.38,0.97-0.5,1.58-0.5c0.94,0,1.74-0.8,1.74-1.74c0-0.61,0.12-1.2,0.5-1.58
			c0.38-0.38,0.97-0.5,1.58-0.5c0.94,0,1.74-0.8,1.74-1.74c0-0.61,0.12-1.2,0.5-1.58c0.38-0.38,0.97-0.5,1.58-0.5
			c0.94,0,1.74-0.8,1.74-1.74c0-0.61,0.13-1.45,0.85-1.9c1.15-0.7,2.38,0.2,3.29,0.2c0.96,0,2.03-1.55,3.25-0.41
			c1.16,1.08-0.03,2.55,0.07,3.25c0.09,0.62,0.91,1.97,0.28,3.17c-0.49,0.93-1.58,1.23-2.19,1.24c-0.94,0-1.74,0.8-1.74,1.74
			c0,0.61-0.12,1.2-0.5,1.58c-0.38,0.38-0.97,0.5-1.58,0.5c-0.94,0-1.74,0.8-1.74,1.74c0,0.61-0.12,1.2-0.5,1.58
			c-0.38,0.38-0.97,0.5-1.58,0.5c-0.94,0-1.74,0.8-1.74,1.74c0,0.61-0.12,1.2-0.5,1.58c-0.38,0.38-0.97,0.5-1.58,0.5
			c-0.94,0-1.74,0.8-1.74,1.74c0,0.61-0.12,1.2-0.5,1.58s-0.97,0.5-1.58,0.5c-0.94,0-1.74,0.8-1.74,1.74c0,0.61-0.24,1.49-0.8,1.88
			c-1.79,1.25-3.02-0.49-3.88-0.17c-0.59,0.22-2.15,1.6-3.29,0.37C77.5,31.43,79.23,29.92,79.33,29.45z"/>
	</g>
	<path style="fill:#FB8C00;" d="M7.11,116.71c4.11,4.11,9.86,0.76,11.92-1.3c1.6-1.6,53.84-53.37,53.84-53.37
		c5.11-5.11,6.89-6.5,5.01-9.15c-1.88-2.65-9.38-2.33-13.54,1.84c0,0-52.56,48.89-54.83,51.16S3.66,113.26,7.11,116.71z"/>
</g>
</svg>

<?xml version="1.0" encoding="UTF-8" standalone="no"?>
<!DOCTYPE svg PUBLIC "-//W3C//DTD SVG 1.1//EN" "http://www.w3.org/Graphics/SVG/1.1/DTD/svg11.dtd">
<svg width="100%" height="100%" viewBox="0 0 128 128" version="1.1" xmlns="http://www.w3.org/2000/svg" xmlns:xlink="http://www.w3.org/1999/xlink" xml:space="preserve" xmlns:serif="http://www.serif.com/" style="fill-rule:evenodd;clip-rule:evenodd;stroke-linejoin:round;stroke-miterlimit:2;">
    <g>
        <path d="M88.77,48.28C86.69,46.06 83.61,43.26 85.35,37.56L113.23,18.09C115.32,16 116.59,13.84 116.59,13.84C120.44,17.69 123.97,26.4 117.55,32.82L103.19,47.18C99.42,50.95 95.52,50.72 95.52,50.72C90.06,55.86 25.79,117.91 25.79,117.91C20.33,123.37 16.14,124.53 11.27,122.21C7.29,120.31 6.15,118.13 6.15,118.13L64.06,60.59C72.48,52.17 80.41,55.51 88.77,48.28Z" style="fill:rgb(230,86,25);fill-rule:nonzero;"/>
        <path d="M6.11,118.17C10.22,122.28 15.97,118.93 18.03,116.87C19.63,115.27 72.87,62.03 72.87,62.03C77.98,56.92 93.687,47.529 97.097,44.119L89.27,44.18C84.16,47.31 69.37,49.68 65.21,53.85C65.21,53.85 10.78,105.08 8.51,107.34C6.24,109.61 2.66,114.72 6.11,118.17Z" style="fill:rgb(247,147,41);fill-rule:nonzero;"/>
        <path d="M86.53,43.1C91.47,48.04 96.91,44.66 98.8,42.77L116.54,25.03C118.43,23.14 120.9,18.17 116.58,13.85C113.78,11.05 108.91,11.16 105.79,14.28L88.06,32.02C86.16,33.91 83.21,39.77 86.53,43.1Z" style="fill:rgb(247,147,41);fill-rule:nonzero;"/>
        <g>
            <g>
                <path d="M105.78,6.14L102.62,11.38C102.62,11.38 109.95,17.79 111.47,18.98C112.6,19.86 113.6,19.79 114.41,18.98C115.22,18.17 115.22,16.85 114.41,16.04C113.6,15.23 105.78,6.14 105.78,6.14Z" style="fill:rgb(134,168,180);fill-rule:nonzero;"/>
                <path d="M80.76,31.42L91.36,42.02L114.41,18.97L103.81,8.37L80.76,31.42Z" style="fill:rgb(134,168,180);fill-rule:nonzero;"/>
                <path d="M84.16,29.84L78.92,33C78.92,33 87.29,40.45 88.81,41.64C89.94,42.52 90.94,42.45 91.75,41.64C92.56,40.83 92.56,39.51 91.75,38.7C90.94,37.88 84.16,29.84 84.16,29.84Z" style="fill:rgb(134,168,180);fill-rule:nonzero;"/>
            </g>
            <path d="M105.29,8.54L102.16,13.77C102.16,13.77 110.7,21.39 112.23,22.58C113.36,23.46 114.36,23.39 115.17,22.58C115.98,21.77 115.98,20.45 115.17,19.64C114.36,18.83 105.29,8.54 105.29,8.54Z" style="fill:rgb(148,224,241);fill-rule:nonzero;"/>
            <path d="M102.18,13.04L97.98,17.24C97.98,17.24 106.87,25.22 108.4,26.4C109.53,27.28 110.53,27.21 111.34,26.4C112.15,25.59 112.15,24.27 111.34,23.46C110.53,22.65 102.18,13.04 102.18,13.04Z" style="fill:rgb(148,224,241);fill-rule:nonzero;"/>
            <path d="M98.3,16.82L94.1,21.02C94.1,21.02 103.05,29.05 104.57,30.23C105.7,31.11 106.7,31.04 107.51,30.23C108.32,29.42 108.32,28.1 107.51,27.29C106.7,26.48 98.3,16.82 98.3,16.82Z" style="fill:rgb(148,224,241);fill-rule:nonzero;"/>
            <path d="M93.99,20.17L89.79,24.37C89.79,24.37 99.22,32.88 100.74,34.06C101.87,34.94 102.87,34.87 103.68,34.06C104.49,33.25 104.49,31.93 103.68,31.12C102.87,30.31 93.99,20.17 93.99,20.17Z" style="fill:rgb(148,224,241);fill-rule:nonzero;"/>
            <path d="M90.17,24L85.97,28.2C85.97,28.2 95.4,36.71 96.92,37.89C98.05,38.77 99.05,38.7 99.86,37.89C100.67,37.08 100.67,35.76 99.86,34.95C99.05,34.14 90.17,24 90.17,24Z" style="fill:rgb(148,224,241);fill-rule:nonzero;"/>
            <path d="M87.25,28.73L81.6,31.74C81.6,31.74 91.57,40.52 93.09,41.71C94.22,42.59 95.22,42.52 96.03,41.71C96.84,40.9 96.84,39.58 96.03,38.77C95.22,37.96 87.25,28.73 87.25,28.73Z" style="fill:rgb(148,224,241);fill-rule:nonzero;"/>
            <path d="M79.33,29.45C79.54,28.53 78.62,26.87 79.4,25.83C80.03,24.99 80.55,25.14 81.17,25.14C82.11,25.14 82.91,24.34 82.91,23.4C82.91,22.79 83.03,22.2 83.41,21.82C83.79,21.44 84.38,21.32 84.99,21.32C85.93,21.32 86.73,20.52 86.73,19.58C86.73,18.97 86.85,18.38 87.23,18C87.61,17.62 88.2,17.5 88.81,17.5C89.75,17.5 90.55,16.7 90.55,15.76C90.55,15.15 90.67,14.56 91.05,14.18C91.43,13.8 92.02,13.68 92.63,13.68C93.57,13.68 94.37,12.88 94.37,11.94C94.37,11.33 94.49,10.74 94.87,10.36C95.25,9.98 95.84,9.86 96.45,9.86C97.39,9.86 98.19,9.06 98.19,8.12C98.19,7.51 98.32,6.67 99.04,6.22C100.19,5.52 101.42,6.42 102.33,6.42C103.29,6.42 104.36,4.87 105.58,6.01C106.74,7.09 105.55,8.56 105.65,9.26C105.74,9.88 106.56,11.23 105.93,12.43C105.44,13.36 104.35,13.66 103.74,13.67C102.8,13.67 102,14.47 102,15.41C102,16.02 101.88,16.61 101.5,16.99C101.12,17.37 100.53,17.49 99.92,17.49C98.98,17.49 98.18,18.29 98.18,19.23C98.18,19.84 98.06,20.43 97.68,20.81C97.3,21.19 96.71,21.31 96.1,21.31C95.16,21.31 94.36,22.11 94.36,23.05C94.36,23.66 94.24,24.25 93.86,24.63C93.48,25.01 92.89,25.13 92.28,25.13C91.34,25.13 90.54,25.93 90.54,26.87C90.54,27.48 90.42,28.07 90.04,28.45C89.66,28.83 89.07,28.95 88.46,28.95C87.52,28.95 86.72,29.75 86.72,30.69C86.72,31.3 86.48,32.18 85.92,32.57C84.13,33.82 82.9,32.08 82.04,32.4C81.45,32.62 79.89,34 78.75,32.77C77.5,31.43 79.23,29.92 79.33,29.45Z" style="fill:rgb(225,250,254);fill-rule:nonzero;"/>
        </g>
    </g>
</svg>
